material/.icons/material/delete-alert.svg

<?xml version="1.0" encoding="UTF-8"?><!DOCTYPE svg PUBLIC "-//W3C//DTD SVG 1.1//EN" "http://www.w3.org/Graphics/SVG/1.1/DTD/svg11.dtd"><svg xmlns="http://www.w3.org/2000/svg" xmlns:xlink="http://www.w3.org/1999/xlink" version="1.1" id="mdi-delete-alert" width="24" height="24" viewBox="0 0 24 24"><path d="M17 4V6H3V4H6.5L7.5 3H12.5L13.5 4H17M4 19V7H16V19C16 20.1 15.1 21 14 21H6C4.9 21 4 20.1 4 19M19 16H21V18H19V16M19 9H21V14H19V9Z" /></svg>

<svg xmlns="http://www.w3.org/2000/svg" viewBox="0 0 24 24"><path d="M17 4v2H3V4h3.5l1-1h5l1 1H17M4 19V7h12v12c0 1.1-.9 2-2 2H6c-1.1 0-2-.9-2-2m15-3h2v2h-2v-2m0-7h2v5h-2V9z"/></svg>
